X: 34296
T: Resilience, The
R: jig
M: 6/8
K: Dmajor
"D"A,DF Afe|dcB AGF|"G"B,DG Bge|edc BAG|
"D"A,DF Afe|dcB AGF|"G"GBG "D"FAF|"A"gec "D"d3:|
|:"D"fdd "G"bag|"D"fdd Bdd|"D"Adf "G"gfd|"A"eAB cde|
"D"fdd "Bm"Bdd|"D"Add "F#m"F3|"G"GBG "D"FAF|"A"gec "D"d3:|

